_site/images/homepage/quotes.svg

<svg fill="none" height="22" viewBox="0 0 28 22" width="28" xmlns="http://www.w3.org/2000/svg"><path clip-rule="evenodd" d="m.586768 8.8601c1.488002-5.13 5.158002-8.8599959 8.727002-8.8599959.28551-.00183189.57062.0215927.85203.07.1555.0284097.293.1185939.381.2499999.0858.129729.1103.290608.067.44l-.73503 2.529996c-.07611.24805-.31086.41279-.57.4h-.058c-1.323 0-3.742 1.91-4.975 6.17-.048.17-.094.34-.139.52 1.41402-.668 3.01902-.81326 4.53-.41 1.59603.3997 2.96333 1.4263 3.79263 2.8473.8293 1.4211 1.0504 3.1165.6134 4.7027-.8221 2.6813-3.3086 4.5036-6.11303 4.48-.57892-.0015-1.15515-.0789-1.714-.23-2.34344-.7226-4.13283-2.6263-4.709002-5.01-.732316-2.5849-.714975-5.3246.05-7.9zm23.435032-8.8599959c.2855-.00187378.5706.0215511.852.07.1558.0283747.2936.1185359.382.2499999.0849.130081.109.290716.066.44l-.735 2.529996c-.0752.24872-.3106.41388-.57.4h-.057c-1.324 0-3.742 1.91-4.975 6.17-.049.17-.1.34-.14.52 1.414-.668 3.019-.81326 4.53-.41 1.596.3997 2.9633 1.4263 3.7926 2.8473.8293 1.4211 1.0504 3.1165.6134 4.7027-.8218 2.6815-3.3085 4.504-6.113 4.48-.579-.0015-1.1552-.0789-1.714-.23-2.3435-.7226-4.1329-2.6263-4.709-5.01-.7323-2.5849-.715-5.3246.05-7.9 1.488-5.13 5.159-8.8599959 8.727-8.8599959z" fill="#00a0b6" fill-rule="evenodd"/></svg>

<svg width="28" height="22" viewBox="0 0 28 22" fill="none" xmlns="http://www.w3.org/2000/svg">
<path fill-rule="evenodd" clip-rule="evenodd" d="M0.586768 8.8601C2.07477 3.7301 5.74477 0.000104102 9.31377 0.000104102C9.59928 -0.00172779 9.88439 0.0216968 10.1658 0.0701041C10.3213 0.0985138 10.4588 0.188698 10.5468 0.320104C10.6326 0.449833 10.6571 0.610712 10.6138 0.760104L9.87877 3.2901C9.80266 3.53815 9.56791 3.70289 9.30877 3.6901H9.25077C7.92777 3.6901 5.50877 5.6001 4.27577 9.8601C4.22777 10.0301 4.18177 10.2001 4.13677 10.3801C5.55079 9.7121 7.15579 9.56684 8.66677 9.9701C10.2628 10.3698 11.6301 11.3964 12.4594 12.8174C13.2887 14.2385 13.5098 15.9339 13.0728 17.5201C12.2507 20.2014 9.7642 22.0237 6.95977 22.0001C6.38085 21.9986 5.80462 21.9212 5.24577 21.7701C2.90233 21.0475 1.11294 19.1438 0.536768 16.7601C-0.195548 14.1752 -0.178207 11.4355 0.586768 8.8601ZM24.0218 0.000104102C24.3073 -0.00176968 24.5924 0.0216552 24.8738 0.0701041C25.0296 0.0984788 25.1674 0.18864 25.2558 0.320104C25.3407 0.450185 25.3648 0.61082 25.3218 0.760104L24.5868 3.2901C24.5116 3.53882 24.2762 3.70398 24.0168 3.6901H23.9598C22.6358 3.6901 20.2178 5.6001 18.9848 9.8601C18.9358 10.0301 18.8848 10.2001 18.8448 10.3801C20.2588 9.7121 21.8638 9.56684 23.3748 9.9701C24.9708 10.3698 26.3381 11.3964 27.1674 12.8174C27.9967 14.2385 28.2178 15.9339 27.7808 17.5201C26.959 20.2016 24.4723 22.0241 21.6678 22.0001C21.0888 21.9986 20.5126 21.9212 19.9538 21.7701C17.6103 21.0475 15.8209 19.1438 15.2448 16.7601C14.5125 14.1752 14.5298 11.4355 15.2948 8.8601C16.7828 3.7301 20.4538 0.000104102 24.0218 0.000104102Z" fill="#00A0B6"/>
</svg>
